germany/municipalities/07131086.svg

<?xml version="1.0" encoding="UTF-8" standalone="no"?>
<!-- Created with Inkscape (http://www.inkscape.org/) -->

<svg
   xmlns:dc="http://purl.org/dc/elements/1.1/"
   xmlns:cc="http://creativecommons.org/ns#"
   xmlns:rdf="http://www.w3.org/1999/02/22-rdf-syntax-ns#"
   xmlns:svg="http://www.w3.org/2000/svg"
   xmlns="http://www.w3.org/2000/svg"
   xmlns:sodipodi="http://sodipodi.sourceforge.net/DTD/sodipodi-0.dtd"
   xmlns:inkscape="http://www.inkscape.org/namespaces/inkscape"
   width="197.93207mm"
   height="209.34358mm"
   viewBox="0 0 701.3341 741.76859"
   id="svg4175"
   version="1.1"
   inkscape:version="0.91 r13725"
   sodipodi:docname="DEU Wirft COA.svg">
  <defs
     id="defs4177" />
  <sodipodi:namedview
     id="base"
     pagecolor="#ffffff"
     bordercolor="#666666"
     borderopacity="1.0"
     inkscape:pageopacity="0.0"
     inkscape:pageshadow="2"
     inkscape:zoom="0.72798892"
     inkscape:cx="350.66705"
     inkscape:cy="370.88383"
     inkscape:document-units="px"
     inkscape:current-layer="layer1"
     showgrid="false"
     inkscape:window-width="1366"
     inkscape:window-height="745"
     inkscape:window-x="-8"
     inkscape:window-y="-8"
     inkscape:window-maximized="1"
     fit-margin-top="0"
     fit-margin-left="0"
     fit-margin-right="0"
     fit-margin-bottom="0"
     inkscape:snap-midpoints="true"
     inkscape:snap-smooth-nodes="true"
     inkscape:object-nodes="true" />
  <metadata
     id="metadata4180">
    <rdf:RDF>
      <cc:Work
         rdf:about="">
        <dc:format>image/svg+xml</dc:format>
        <dc:type
           rdf:resource="http://purl.org/dc/dcmitype/StillImage" />
        <dc:title></dc:title>
      </cc:Work>
    </rdf:RDF>
  </metadata>
  <g
     inkscape:label="Ebene 1"
     inkscape:groupmode="layer"
     id="layer1"
     transform="translate(-30.303685,-38.567961)">
    <path
       style="fill:#ffffff;fill-rule:evenodd;stroke:none;stroke-width:11;stroke-opacity:1"
       inkscape:connector-curvature="0"
       d="m 35.983405,44.06796 13.398,416.62441 c 7.415,175.24977 153.919795,314.04607 331.589255,314.14417 177.50971,-0.2149 324.0694,-139.0612 331.58941,-314.14417 l 13.39799,-416.62441 -344.9794,0 z"
       id="path10563-0-5" />
    <path
       style="opacity:1;fill:#ff0000;fill-opacity:1;fill-rule:nonzero;stroke:#000000;stroke-width:11;stroke-linecap:round;stroke-linejoin:round;stroke-miterlimit:4;stroke-dasharray:none;stroke-dashoffset:0;stroke-opacity:1"
       d="M 350.66602 5.5 L 350.66602 736.26953 C 528.17574 736.05463 674.73585 597.20797 682.25586 422.125 L 695.6543 5.5 L 350.67578 5.5 L 350.66602 5.5 z "
       transform="translate(30.303685,38.567961)"
       id="rect4791" />
    <path
       style="fill:none;fill-rule:evenodd;stroke:#000000;stroke-width:11;stroke-opacity:1"
       inkscape:connector-curvature="0"
       d="m 35.9834,44.067961 13.398,416.624409 c 7.415,175.24977 153.9198,314.04607 331.58926,314.14417 177.5097,-0.2149 324.0694,-139.0612 331.5894,-314.14417 l 13.398,-416.624409 -344.9794,0 z"
       id="path10563-0" />
    <path
       inkscape:connector-curvature="0"
       style="opacity:1;fill:#ffffff;fill-opacity:1;fill-rule:nonzero;stroke:#000000;stroke-width:7.99999952;stroke-linecap:round;stroke-linejoin:round;stroke-miterlimit:4;stroke-dasharray:none;stroke-dashoffset:0;stroke-opacity:1"
       d="M 549.46285,208.44687 A 111.61794,111.61794 0 0 0 437.84566,320.06405 111.61794,111.61794 0 0 0 549.46285,431.68319 111.61794,111.61794 0 0 0 661.08199,320.06405 111.61794,111.61794 0 0 0 549.46285,208.44687 Z m 0,22.22265 a 89.394127,89.394127 0 0 1 89.39453,89.39453 89.394127,89.394127 0 0 1 -89.39453,89.39453 89.394127,89.394127 0 0 1 -89.39258,-89.39453 89.394127,89.394127 0 0 1 89.39258,-89.39453 z"
       id="path4828" />
    <path
       style="opacity:1;fill:#ffffff;fill-opacity:1;fill-rule:nonzero;stroke:#000000;stroke-width:7.99999952;stroke-linecap:round;stroke-linejoin:round;stroke-miterlimit:4;stroke-dasharray:none;stroke-dashoffset:0;stroke-opacity:1"
       d="M 519.1582 325.68555 A 111.61794 111.61794 0 0 0 407.54102 437.30273 A 111.61794 111.61794 0 0 0 519.1582 548.92188 A 111.61794 111.61794 0 0 0 630.77734 437.30273 A 111.61794 111.61794 0 0 0 599.00781 359.46875 A 111.61794 111.61794 0 0 1 581.94336 373.76758 A 89.394127 89.394127 0 0 1 608.55273 437.30273 A 89.394127 89.394127 0 0 1 519.1582 526.69727 A 89.394127 89.394127 0 0 1 429.76562 437.30273 A 89.394127 89.394127 0 0 1 519.1582 347.9082 A 89.394127 89.394127 0 0 1 562.84961 359.36133 A 89.394127 89.394127 0 0 0 581.90625 345.12305 A 111.61794 111.61794 0 0 0 519.1582 325.68555 z "
       transform="translate(30.303685,38.567961)"
       id="path4828-5" />
    <path
       style="fill:#ff0000;fill-rule:evenodd;stroke:#000000;stroke-width:8;stroke-linecap:butt;stroke-linejoin:round;stroke-miterlimit:4;stroke-dasharray:none;stroke-opacity:1;fill-opacity:1"
       d="m 124.60409,118.23984 79.6289,234.48242 -118.250002,-75.95118 37.236332,95.90821 -37.236332,95.90625 118.248052,-75.94727 -79.62695,234.47852 95.9082,-70.42383 95.90625,70.42383 -79.62695,-234.47852 118.24804,75.94727 -37.23633,-95.90625 37.23633,-95.90821 -118.24804,75.95118 79.62695,-234.48242 -95.90625,70.42382 -95.9082,-70.42382 z"
       id="path4886"
       inkscape:connector-curvature="0" />
  </g>
</svg>

<svg xmlns="http://www.w3.org/2000/svg" width="748.09" height="791.22" viewBox="0 0 701.334 741.769"><path style="fill:#fff;fill-rule:evenodd;stroke:none;stroke-width:11;stroke-opacity:1" d="m35.983 44.068 13.398 416.624c7.415 175.25 153.92 314.046 331.59 314.145 177.51-.215 324.07-139.062 331.59-314.145l13.397-416.624h-344.98z" transform="translate(-30.304 -38.568)"/><path style="opacity:1;fill:red;fill-opacity:1;fill-rule:nonzero;stroke:#000;stroke-width:11;stroke-linecap:round;stroke-linejoin:round;stroke-miterlimit:4;stroke-dasharray:none;stroke-dashoffset:0;stroke-opacity:1" d="M350.666 5.5v730.77c177.51-.215 324.07-139.062 331.59-314.145L695.654 5.5H350.666z"/><path style="fill:none;fill-rule:evenodd;stroke:#000;stroke-width:11;stroke-opacity:1" d="m35.983 44.068 13.398 416.624c7.415 175.25 153.92 314.046 331.59 314.145 177.51-.215 324.07-139.062 331.59-314.145l13.397-416.624h-344.98z" transform="translate(-30.304 -38.568)"/><path style="opacity:1;fill:#fff;fill-opacity:1;fill-rule:nonzero;stroke:#000;stroke-width:7.99999952;stroke-linecap:round;stroke-linejoin:round;stroke-miterlimit:4;stroke-dasharray:none;stroke-dashoffset:0;stroke-opacity:1" d="M549.463 208.447a111.618 111.618 0 0 0-111.617 111.617 111.618 111.618 0 0 0 111.617 111.62 111.618 111.618 0 0 0 111.619-111.62 111.618 111.618 0 0 0-111.62-111.617zm0 22.223a89.394 89.394 0 0 1 89.394 89.394 89.394 89.394 0 0 1-89.394 89.395 89.394 89.394 0 0 1-89.393-89.395 89.394 89.394 0 0 1 89.393-89.394z" transform="translate(-30.304 -38.568)"/><path style="opacity:1;fill:#fff;fill-opacity:1;fill-rule:nonzero;stroke:#000;stroke-width:7.99999952;stroke-linecap:round;stroke-linejoin:round;stroke-miterlimit:4;stroke-dasharray:none;stroke-dashoffset:0;stroke-opacity:1" d="M519.158 325.686a111.618 111.618 0 0 0-111.617 111.617 111.618 111.618 0 0 0 111.617 111.619 111.618 111.618 0 0 0 111.62-111.62 111.618 111.618 0 0 0-31.77-77.833 111.618 111.618 0 0 1-17.065 14.299 89.394 89.394 0 0 1 26.61 63.535 89.394 89.394 0 0 1-89.395 89.394 89.394 89.394 0 0 1-89.392-89.394 89.394 89.394 0 0 1 89.392-89.395 89.394 89.394 0 0 1 43.692 11.453 89.394 89.394 0 0 0 19.056-14.238 111.618 111.618 0 0 0-62.748-19.437z"/><path style="fill:red;fill-rule:evenodd;stroke:#000;stroke-width:8;stroke-linecap:butt;stroke-linejoin:round;stroke-miterlimit:4;stroke-dasharray:none;stroke-opacity:1;fill-opacity:1" d="m124.604 118.24 79.629 234.482-118.25-75.95 37.236 95.907-37.236 95.907 118.248-75.948-79.627 234.479 95.908-70.424 95.907 70.424-79.627-234.479 118.248 75.948-37.237-95.907 37.237-95.908-118.248 75.951 79.627-234.482-95.907 70.424-95.908-70.424z" transform="translate(-30.304 -38.568)"/></svg>
